resources/vendors/exmocom/icon-1504698176.svg

<?xml version="1.0" encoding="UTF-8"?>
<svg style="" viewBox="0 0 86 36" xmlns="http://www.w3.org/2000/svg">
<rect class="" width="100%" height="100%" fill="none" style=""/>
<title>logo</title>
<g class="currentLayer" style="">
<title>Layer 1</title>
<path class="" d="m57.46 4.22-11.21 31-0.07 0.19-2.06-4.22-4.3 2 11.28-31.19 4.3-2zm28.07 0.73-11.21 31.05-2.06-4.23-4.3 2 0.26-0.73 11.21-31.04 4.3-2 2.05 4.22zm-24 26.85 6.6-18.25-4.31 2-2.05-4.23-6.62 18.25 2.05 4.23zm-35.72-18h-19.72l3.36 3.2-3.36 3.25h19.7l3.35-3.25zm-22.45 13.53h31.88l-3.35 3.23 3.35 3.22h-31.88l-3.36-3.22zm9.78-27.07h31.86l-3.34 3.23 3.34 3.22h-31.86l-3.36-3.22z" fill="#1a1aeb" fill-rule="evenodd"/>
</g>
</svg>

<svg xmlns="http://www.w3.org/2000/svg" width="86" height="36" style=""><rect id="backgroundrect" width="100%" height="100%" x="0" y="0" fill="none" stroke="none" class="" style=""/><title>logo</title><g class="currentLayer" style=""><title>Layer 1</title><path d="M57.46,4.22 l-11.21,31 l-0.07,0.19000000000000003 l-2.06,-4.22 l-4.3,2 L51.1,2 l4.3,-2 zm28.07,0.7300000000000001 L74.32,36 l-2.06,-4.23 l-4.3,2 l0.26,-0.7300000000000001 L79.43,2 l4.3,-2 l2.05,4.22 zm-24,26.85 l6.6,-18.25 l-4.3100000000000005,2 l-2.05,-4.23 l-6.62,18.25 l2.05,4.23 zm-35.72,-18 H6.09 L9.45,17 l-3.36,3.25 h19.7 L29.14,17 zM3.36,27.33 h31.88 l-3.35,3.23 l3.35,3.22 H3.36 L0,30.56 zM13.14,0.26 H45 l-3.34,3.23 L45,6.71 H13.14 L9.78,3.49 z" fill="#1a1aeb" fill-rule="evenodd" id="svg_1" class="" fill-opacity="1"/></g></svg>
